X: 79
T: Sibao langong
L: 1/16
M: 2/4
K: G
A B2 B A A2 B [I:setbarnb 1]| 
d2> E2G4 | 
A B2 B A A2 G | 
A2> E2D4 | 
D2 D E A2 A G | 
E2 E D E F E2 | 
A A2 B d2 z E | 
D B, D E G2 F E | 
D E2 B,A,4 |]

@@@ Tune index: 8953
